packages/smooth_app/assets/preferences/contact.svg

<svg width="247" height="200" viewBox="0 0 247 200" fill="none" xmlns="http://www.w3.org/2000/svg">
    <g clip-path="url(#clip0_3112_12163)">
        <path d="M211.659 19.7251H35.3412C15.8228 19.7251 0 35.5652 0 55.1049V128.828C0 148.368 15.8228 164.208 35.3412 164.208H211.659C231.177 164.208 247 148.368 247 128.828V55.1049C247 35.5652 231.177 19.7251 211.659 19.7251Z" fill="white"/>
        <path d="M50.8481 192.22V123.341H141.246L63.9891 197.818C59.0632 202.567 50.8521 199.072 50.8521 192.224L50.8481 192.22Z" fill="white"/>
        <path d="M212.622 67.1414H34.3742C32.9515 67.1414 31.7983 65.9869 31.7983 64.5627C31.7983 63.1385 32.9515 61.984 34.3742 61.984H212.622C214.044 61.984 215.198 63.1385 215.198 64.5627C215.198 65.9869 214.044 67.1414 212.622 67.1414Z" fill="#AFAFAF"/>
        <path d="M212.622 94.547H34.3742C32.9515 94.547 31.7983 93.3926 31.7983 91.9683C31.7983 90.5441 32.9515 89.3896 34.3742 89.3896H212.622C214.044 89.3896 215.198 90.5441 215.198 91.9683C215.198 93.3926 214.044 94.547 212.622 94.547Z" fill="#AFAFAF"/>
        <path d="M157.716 121.949H34.3742C32.9515 121.949 31.7983 120.794 31.7983 119.37C31.7983 117.946 32.9515 116.791 34.3742 116.791H157.716C159.138 116.791 160.292 117.946 160.292 119.37C160.292 120.794 159.138 121.949 157.716 121.949Z" fill="#AFAFAF"/>
        <path d="M198.731 0.270472L213.021 4.80845C216.183 5.81249 217.937 9.19963 216.934 12.3648L189.247 99.7407L163.492 91.5621L191.179 4.1861C192.182 1.02096 195.566 -0.73477 198.727 0.269271L198.731 0.270472Z" fill="#0064C8"/>
        <path d="M189.237 99.7521L163.486 91.5717L165.717 108.936L177.411 112.65L189.237 99.7521Z" fill="#FFC88C"/>
        <path d="M172.323 118.2L177.411 112.65L165.717 108.936L166.68 116.41C167.06 119.354 170.318 120.39 172.323 118.204V118.2Z" fill="#333333"/>
        <path d="M212.318 4.58464L205.877 2.53937L176.373 95.6519L182.813 97.6972L212.318 4.58464Z" fill="#5CB5FF"/>
        <path d="M198.728 0.271147L199.434 0.495466L169.93 93.6042L163.49 91.559L191.176 4.18677C192.179 1.02163 195.562 -0.734095 198.724 0.269946L198.728 0.271147Z" fill="#5CB5FF"/>
    </g>
    <g style="mix-blend-mode:multiply" opacity="0.3">
        <g style="mix-blend-mode:multiply" opacity="0.3">
            <path d="M83.585 8.18776C81.7345 6.3375 79.2748 5.31689 76.6571 5.31689C74.0393 5.31689 71.5797 6.3375 69.7291 8.18776L68.7281 9.18861L67.7272 8.18776C65.8766 6.3375 63.4137 5.31689 60.7992 5.31689C58.1848 5.31689 55.7218 6.3375 53.8713 8.18776C52.0208 10.038 51 12.5006 51 15.1147C51 17.7288 52.0208 20.1914 53.8713 22.0417L68.2902 36.4585C68.4121 36.5803 68.5701 36.6396 68.7314 36.6396C68.8928 36.6396 69.0508 36.5803 69.1727 36.4585L83.5916 22.0417C85.4421 20.1914 86.4629 17.7288 86.4629 15.1147C86.4629 12.5006 85.4421 10.038 83.5916 8.18776H83.585Z" fill="black"/>
        </g>
    </g>
    <path d="M84.9024 6.87087C83.0519 5.02061 80.5922 4 77.9745 4C75.3567 4 72.8971 5.02061 71.0465 6.87087L70.0455 7.87172L69.0445 6.87087C67.194 5.02061 64.731 4 62.1166 4C59.5022 4 57.0392 5.02061 55.1887 6.87087C53.3381 8.72112 52.3174 11.1837 52.3174 13.7978C52.3174 16.4119 53.3381 18.8745 55.1887 20.7248L69.6076 35.1416C69.7294 35.2635 69.8875 35.3227 70.0488 35.3227C70.2102 35.3227 70.3682 35.2635 70.4901 35.1416L84.909 20.7248C86.7595 18.8745 87.7803 16.4119 87.7803 13.7978C87.7803 11.1837 86.7595 8.72112 84.909 6.87087H84.9024Z" fill="#FF6E78"/>
    <defs>
        <clipPath id="clip0_3112_12163">
            <rect width="247" height="200" fill="white"/>
        </clipPath>
    </defs>
</svg>

<svg width="247" height="200" fill="none" xmlns="http://www.w3.org/2000/svg"><g clip-path="url(#a)"><path d="M211.659 19.725H35.341C15.823 19.725 0 35.565 0 55.105v73.723c0 19.54 15.823 35.38 35.341 35.38H211.66c19.518 0 35.341-15.84 35.341-35.38V55.105c0-19.54-15.823-35.38-35.341-35.38Z" fill="#fff"/><path d="M50.848 192.22v-68.879h90.398l-77.257 74.477c-4.926 4.749-13.137 1.254-13.137-5.594l-.004-.004Z" fill="#fff"/><path d="M212.622 67.141H34.374a2.577 2.577 0 0 1-2.576-2.578 2.577 2.577 0 0 1 2.576-2.579h178.248a2.578 2.578 0 0 1 2.576 2.579 2.578 2.578 0 0 1-2.576 2.578ZM212.622 94.547H34.374a2.577 2.577 0 0 1-2.576-2.579 2.577 2.577 0 0 1 2.576-2.578h178.248a2.578 2.578 0 0 1 2.576 2.578 2.578 2.578 0 0 1-2.576 2.579ZM157.716 121.949H34.374a2.578 2.578 0 0 1-2.576-2.579 2.578 2.578 0 0 1 2.576-2.579h123.342a2.578 2.578 0 0 1 2.576 2.579 2.578 2.578 0 0 1-2.576 2.579Z" fill="#AFAFAF"/><path d="m198.731.27 14.29 4.538a6.024 6.024 0 0 1 3.913 7.557L189.247 99.74l-25.755-8.179 27.687-87.376A6.015 6.015 0 0 1 198.727.27l.004.001Z" fill="#0064C8"/><path d="m189.237 99.752-25.751-8.18 2.231 17.364 11.694 3.714 11.826-12.898Z" fill="#FFC88C"/><path d="m172.323 118.2 5.088-5.55-11.694-3.714.963 7.474c.38 2.944 3.638 3.98 5.643 1.794v-.004Z" fill="#333"/><path d="m212.318 4.585-6.441-2.046-29.504 93.113 6.44 2.045 29.505-93.112ZM198.728.271l.706.224-29.504 93.11-6.44-2.046 27.686-87.372A6.014 6.014 0 0 1 198.724.27l.004.001Z" fill="#5CB5FF"/></g><path d="M83.585 8.188a9.734 9.734 0 0 0-6.928-2.871 9.735 9.735 0 0 0-6.928 2.87l-1 1.002-1.002-1.001A9.74 9.74 0 0 0 60.8 5.317a9.74 9.74 0 0 0-6.928 2.87A9.737 9.737 0 0 0 51 15.116a9.738 9.738 0 0 0 2.871 6.927l14.42 14.416c.121.122.28.182.44.182.162 0 .32-.06.442-.181l14.419-14.417a9.738 9.738 0 0 0 2.87-6.927 9.737 9.737 0 0 0-2.87-6.927h-.007Z" fill="#000" style="mix-blend-mode:multiply" opacity=".3"/><path d="M84.902 6.87A9.734 9.734 0 0 0 77.975 4a9.735 9.735 0 0 0-6.928 2.87l-1.001 1.002-1.002-1.001A9.74 9.74 0 0 0 62.117 4a9.74 9.74 0 0 0-6.928 2.87 9.737 9.737 0 0 0-2.872 6.928 9.737 9.737 0 0 0 2.872 6.927l14.419 14.417c.121.121.28.18.44.18.162 0 .32-.059.442-.18L84.91 20.725a9.738 9.738 0 0 0 2.871-6.927A9.737 9.737 0 0 0 84.91 6.87h-.007Z" fill="#FF6E78"/><defs><clipPath id="a"><path fill="#fff" d="M0 0h247v200H0z"/></clipPath></defs></svg>
